packages/icons/assets/Dislike.svg

<svg xmlns="http://www.w3.org/2000/svg" viewBox="0 0 16 16"><path fill="#414141" d="M0 8.442l.973-6.215S1.231 0 4.227 0h5.8A5.481 5.481 0 0112 .373V0h4v10h-4v-.667a3.128 3.128 0 00-2 2.912V16s-.15.014-.391.014c-1 0-3.591-.234-3.591-2.642L5.969 11H2.306A2.49 2.49 0 010 8.442zM13 9h2V1h-2zM1.04055 8.514a1.35656 1.35656 0 00.61373 1.216 1.94929 1.94929 0 00.74126.27H6.9294l.02017.979L7 13.352v.02a1.29954 1.29954 0 00.84821 1.317A3.75756 3.75756 0 009 14.981v-2.7303a3.963 3.963 0 011.968-3.491A5.54112 5.54112 0 0112 8.2557V1.7a.26842.26842 0 00-.09963-.227 1.552 1.552 0 00-.57089-.285A4.93889 4.93889 0 0010.03128 1H4.25267a2.41571 2.41571 0 00-1.90894.674A1.55106 1.55106 0 002 2.35v.031z"/></svg>

<svg xmlns="http://www.w3.org/2000/svg" viewBox="0 0 16 16"><path fill="#414141" d="M.00057 8.435l.973-6.215s.258-2.227 3.254-2.227h5.8a5.481 5.481 0 011.973.373v-.373h4v10h-4v-.667a3.128 3.128 0 00-2 2.912v3.755s-.15.014-.391.014c-1 0-3.591-.234-3.591-2.642l-.049-2.372h-3.663a2.49 2.49 0 01-2.306-2.558zm13 .558h2v-8h-2zm-12-.486a1.355 1.355 0 00.616 1.216 1.96111 1.96111 0 00.744.27h4.587l.02.979.05 2.373v.02a1.3 1.3 0 00.841 1.317 3.70009 3.70009 0 001.142.292v-2.736a3.963 3.963 0 011.968-3.491 5.54112 5.54112 0 011.032-.504v-6.55a.268.268 0 00-.1-.227 1.56 1.56 0 00-.573-.285 4.9742 4.9742 0 00-1.303-.188h-5.8a2.43 2.43 0 00-1.916.674 1.549 1.549 0 00-.345.676v.031z"/></svg>
